Icons/com_lastpass_lpandroid.svg

<svg viewBox="0 0 48 48" xmlns:xlink="http://www.w3.org/1999/xlink">
 <defs>
  <linearGradient id="0">
   <stop stop-opacity="0"/>
   <stop offset="1"/>
  </linearGradient>
  <linearGradient xlink:href="#0" id="1" gradientUnits="userSpaceOnUse" gradientTransform="translate(4e-7,-48)" y1="47" x2="0" y2="1"/>
  <clipPath id="2">
   <g transform="translate(0,-1004.3622)">
    <rect rx="4" y="1005.36" x="1" height="46" width="46" fill="#1890d0"/>
   </g>
  </clipPath>
  <clipPath id="3">
   <g transform="translate(0,-1004.3622)">
    <rect rx="4" y="1005.36" x="1" height="46" width="46" fill="#1890d0"/>
   </g>
  </clipPath>
 </defs>
 <g>
  <g transform="translate(0,-1004.3622)">
   <path d="m 5,1006.3622 c -2.216,0 -4,1.784 -4,4 l 0,37.25 c 0,2.216 1.784,4 4,4 l 38,0 c 2.216,0 4,-1.784 4,-4 l 0,-37.25 c 0,-2.216 -1.784,-4 -4,-4 l -38,0 z m -4,41.5 0,0.5 c 0,2.216 1.784,4 4,4 l 38,0 c 2.216,0 4,-1.784 4,-4 l 0,-0.5 c 0,2.216 -1.784,4 -4,4 l -38,0 c -2.216,0 -4,-1.784 -4,-4 z" opacity="0.02"/>
   <path d="m 1,1047.6122 0,0.25 c 0,2.216 1.784,4 4,4 l 38,0 c 2.216,0 4,-1.784 4,-4 l 0,-0.25 c 0,2.216 -1.784,4 -4,4 l -38,0 c -2.216,0 -4,-1.784 -4,-4 z" opacity="0.05"/>
   <rect width="46" height="46" x="1" y="1005.61" rx="4" opacity="0.1"/>
  </g>
 </g>
 <g>
  <g transform="translate(0,-1004.3622)">
   <rect rx="4" y="1005.36" x="1" height="46" width="46" fill="#c00033"/>
  </g>
 </g>
 <g>
  <rect transform="scale(1,-1)" width="46" height="46" x="1" y="-46.998" rx="4" opacity="0.1" fill="url(#1)"/>
 </g>
 <g>
  <g clip-path="url(#2)">
   <g opacity="0.1">
    <g>
     <path d="M 20.070312 11.25 C 19.957031 11.25 15.472656 13.910156 15.300781 14.082031 C 15.207031 14.171875 15.226562 14.242188 15.441406 14.597656 C 17.808594 18.496094 19.386719 21.191406 19.332031 21.238281 C 19.296875 21.273438 17.867188 21.253906 16.164062 21.203125 C 14.457031 21.148438 12.667969 21.101562 12.183594 21.097656 L 11.308594 21.09375 L 11.265625 23.941406 C 11.238281 25.617188 11.246094 26.816406 11.289062 26.859375 C 11.351562 26.929688 16.332031 26.816406 18.375 26.699219 C 19.082031 26.660156 19.230469 26.671875 19.265625 26.765625 C 19.292969 26.832031 18.972656 27.445312 18.523438 28.191406 C 18.09375 28.910156 17.167969 30.457031 16.472656 31.621094 C 15.777344 32.785156 15.222656 33.777344 15.242188 33.828125 C 15.289062 33.957031 19.835938 36.625 20.015625 36.628906 C 20.15625 36.632812 21.191406 34.75 23.558594 30.199219 C 23.734375 29.859375 23.929688 29.582031 23.992188 29.582031 C 24.058594 29.582031 24.753906 30.832031 25.785156 32.796875 C 27.914062 36.863281 27.855469 36.75 27.894531 36.75 C 27.914062 36.75 28.414062 36.457031 29.007812 36.101562 C 29.597656 35.75 30.6875 35.101562 31.425781 34.660156 C 32.164062 34.222656 32.769531 33.832031 32.769531 33.792969 C 32.769531 33.753906 32.066406 32.546875 31.203125 31.109375 C 30.339844 29.671875 29.40625 28.113281 29.128906 27.644531 C 28.839844 27.164062 28.644531 26.761719 28.679688 26.722656 C 28.71875 26.683594 30.460938 26.707031 32.667969 26.769531 C 34.824219 26.835938 36.621094 26.863281 36.65625 26.828125 C 36.742188 26.746094 36.789062 21.109375 36.707031 21.054688 C 36.671875 21.03125 35.027344 21.066406 33.058594 21.128906 C 28.777344 21.269531 28.683594 21.269531 28.683594 21.167969 C 28.683594 21.121094 29.371094 19.945312 30.210938 18.550781 C 32.714844 14.386719 32.839844 14.171875 32.804688 14.117188 C 32.789062 14.085938 32.355469 13.816406 31.84375 13.515625 C 31.332031 13.21875 30.261719 12.582031 29.464844 12.109375 C 28.664062 11.636719 27.976562 11.25 27.9375 11.25 C 27.875 11.25 26.347656 14.070312 24.703125 17.234375 C 24.3125 17.984375 24.070312 18.371094 23.996094 18.359375 C 23.9375 18.347656 23.050781 16.746094 22.03125 14.796875 C 20.972656 12.777344 20.128906 11.25 20.070312 11.25 Z M 20.070312 11.25 " stroke="#f9f9f9" stroke-width="0.5"/>
    </g>
   </g>
  </g>
 </g>
 <g>
  <g clip-path="url(#3)">
   <g transform="translate(0,-1)">
    <g>
     <path d="M 20.070312 11.25 C 19.957031 11.25 15.472656 13.910156 15.300781 14.082031 C 15.207031 14.171875 15.226562 14.242188 15.441406 14.597656 C 17.808594 18.496094 19.386719 21.191406 19.332031 21.238281 C 19.296875 21.273438 17.867188 21.253906 16.164062 21.203125 C 14.457031 21.148438 12.667969 21.101562 12.183594 21.097656 L 11.308594 21.09375 L 11.265625 23.941406 C 11.238281 25.617188 11.246094 26.816406 11.289062 26.859375 C 11.351562 26.929688 16.332031 26.816406 18.375 26.699219 C 19.082031 26.660156 19.230469 26.671875 19.265625 26.765625 C 19.292969 26.832031 18.972656 27.445312 18.523438 28.191406 C 18.09375 28.910156 17.167969 30.457031 16.472656 31.621094 C 15.777344 32.785156 15.222656 33.777344 15.242188 33.828125 C 15.289062 33.957031 19.835938 36.625 20.015625 36.628906 C 20.15625 36.632812 21.191406 34.75 23.558594 30.199219 C 23.734375 29.859375 23.929688 29.582031 23.992188 29.582031 C 24.058594 29.582031 24.753906 30.832031 25.785156 32.796875 C 27.914062 36.863281 27.855469 36.75 27.894531 36.75 C 27.914062 36.75 28.414062 36.457031 29.007812 36.101562 C 29.597656 35.75 30.6875 35.101562 31.425781 34.660156 C 32.164062 34.222656 32.769531 33.832031 32.769531 33.792969 C 32.769531 33.753906 32.066406 32.546875 31.203125 31.109375 C 30.339844 29.671875 29.40625 28.113281 29.128906 27.644531 C 28.839844 27.164062 28.644531 26.761719 28.679688 26.722656 C 28.71875 26.683594 30.460938 26.707031 32.667969 26.769531 C 34.824219 26.835938 36.621094 26.863281 36.65625 26.828125 C 36.742188 26.746094 36.789062 21.109375 36.707031 21.054688 C 36.671875 21.03125 35.027344 21.066406 33.058594 21.128906 C 28.777344 21.269531 28.683594 21.269531 28.683594 21.167969 C 28.683594 21.121094 29.371094 19.945312 30.210938 18.550781 C 32.714844 14.386719 32.839844 14.171875 32.804688 14.117188 C 32.789062 14.085938 32.355469 13.816406 31.84375 13.515625 C 31.332031 13.21875 30.261719 12.582031 29.464844 12.109375 C 28.664062 11.636719 27.976562 11.25 27.9375 11.25 C 27.875 11.25 26.347656 14.070312 24.703125 17.234375 C 24.3125 17.984375 24.070312 18.371094 23.996094 18.359375 C 23.9375 18.347656 23.050781 16.746094 22.03125 14.796875 C 20.972656 12.777344 20.128906 11.25 20.070312 11.25 Z M 20.070312 11.25 " fill="#f9f9f9" stroke="#f9f9f9" stroke-width="0.5"/>
    </g>
   </g>
  </g>
 </g>
 <g>
  <g transform="translate(0,-1004.3622)">
   <path d="m 1,1043.3622 0,4 c 0,2.216 1.784,4 4,4 l 38,0 c 2.216,0 4,-1.784 4,-4 l 0,-4 c 0,2.216 -1.784,4 -4,4 l -38,0 c -2.216,0 -4,-1.784 -4,-4 z" opacity="0.1"/>
  </g>
 </g>
</svg>

<svg viewBox="0 0 48 48"><defs><linearGradient id="linearGradient3764" x1="1" x2="47" gradientUnits="userSpaceOnUse" gradientTransform="translate(-48.000001,0.00221467)"><stop stop-color="#ac002d" stop-opacity="1"/><stop offset="1" stop-color="#c00033" stop-opacity="1"/></linearGradient><clipPath id="clipPath-498012926"><g transform="translate(0,-1004.3622)"><rect rx="4" y="1005.36" x="1" height="46" width="46" fill="#1890d0"/></g></clipPath><clipPath id="clipPath-528827976"><g transform="translate(0,-1004.3622)"><rect rx="4" y="1005.36" x="1" height="46" width="46" fill="#1890d0"/></g></clipPath></defs><g><path d="m 1 43 l 0 0.25 c 0 2.216 1.784 4 4 4 l 38 0 c 2.216 0 4 -1.784 4 -4 l 0 -0.25 c 0 2.216 -1.784 4 -4 4 l -38 0 c -2.216 0 -4 -1.784 -4 -4 z m 0 0.5 l 0 0.5 c 0 2.216 1.784 4 4 4 l 38 0 c 2.216 0 4 -1.784 4 -4 l 0 -0.5 c 0 2.216 -1.784 4 -4 4 l -38 0 c -2.216 0 -4 -1.784 -4 -4 z" opacity="0.02"/><path d="m 1 43.25 l 0 0.25 c 0 2.216 1.784 4 4 4 l 38 0 c 2.216 0 4 -1.784 4 -4 l 0 -0.25 c 0 2.216 -1.784 4 -4 4 l -38 0 c -2.216 0 -4 -1.784 -4 -4 z" opacity="0.05"/><path d="m 1 43 l 0 0.25 c 0 2.216 1.784 4 4 4 l 38 0 c 2.216 0 4 -1.784 4 -4 l 0 -0.25 c 0 2.216 -1.784 4 -4 4 l -38 0 c -2.216 0 -4 -1.784 -4 -4 z" opacity="0.1"/></g><g><rect width="46" height="46" x="-47" y="1" rx="4" transform="matrix(0,-1,1,0,0,0)" fill="url(#linearGradient3764)" fill-opacity="1"/></g><g><g clip-path="url(#clipPath-498012926)"><g opacity="0.1"><!-- color: #c00033 --><g><path d="m 20.07 11.25 c -0.113 0 -4.598 2.66 -4.77 2.832 c -0.094 0.09 -0.074 0.16 0.141 0.516 c 2.367 3.898 3.945 6.594 3.891 6.641 c -0.035 0.035 -1.465 0.016 -3.168 -0.035 c -1.707 -0.055 -3.496 -0.102 -3.98 -0.105 l -0.875 -0.004 l -0.043 2.848 c -0.027 1.676 -0.02 2.875 0.023 2.918 c 0.063 0.07 5.04 -0.043 7.086 -0.16 c 0.707 -0.039 0.855 -0.027 0.891 0.066 c 0.027 0.066 -0.293 0.68 -0.742 1.426 c -0.43 0.719 -1.355 2.266 -2.051 3.43 c -0.695 1.164 -1.25 2.156 -1.23 2.207 c 0.047 0.129 4.594 2.797 4.773 2.801 c 0.141 0.004 1.176 -1.879 3.543 -6.43 c 0.176 -0.34 0.371 -0.617 0.434 -0.617 c 0.066 0 0.762 1.25 1.793 3.215 c 2.129 4.066 2.07 3.953 2.109 3.953 c 0.02 0 0.52 -0.293 1.113 -0.648 c 0.59 -0.352 1.68 -1 2.418 -1.441 c 0.738 -0.438 1.344 -0.828 1.344 -0.867 c 0 -0.039 -0.703 -1.246 -1.566 -2.684 c -0.863 -1.438 -1.797 -2.996 -2.074 -3.465 c -0.289 -0.48 -0.484 -0.883 -0.449 -0.922 c 0.039 -0.039 1.781 -0.016 3.988 0.047 c 2.156 0.066 3.953 0.094 3.988 0.059 c 0.086 -0.082 0.133 -5.719 0.051 -5.773 c -0.035 -0.023 -1.68 0.012 -3.648 0.074 c -4.281 0.141 -4.375 0.141 -4.375 0.039 c 0 -0.047 0.688 -1.223 1.527 -2.617 c 2.504 -4.164 2.629 -4.379 2.594 -4.434 c -0.016 -0.031 -0.449 -0.301 -0.961 -0.602 c -0.512 -0.297 -1.582 -0.934 -2.379 -1.406 c -0.801 -0.473 -1.488 -0.859 -1.527 -0.859 c -0.063 0 -1.59 2.82 -3.234 5.984 c -0.391 0.75 -0.633 1.137 -0.707 1.125 c -0.059 -0.012 -0.945 -1.613 -1.965 -3.563 c -1.059 -2.02 -1.902 -3.547 -1.961 -3.547 m 0 0" stroke="#f9f9f9" stroke-width="0.5" fill="#000"/></g></g></g></g><g><g clip-path="url(#clipPath-528827976)"><g transform="translate(0,-1)"><!-- color: #c00033 --><g><path d="m 20.07 11.25 c -0.113 0 -4.598 2.66 -4.77 2.832 c -0.094 0.09 -0.074 0.16 0.141 0.516 c 2.367 3.898 3.945 6.594 3.891 6.641 c -0.035 0.035 -1.465 0.016 -3.168 -0.035 c -1.707 -0.055 -3.496 -0.102 -3.98 -0.105 l -0.875 -0.004 l -0.043 2.848 c -0.027 1.676 -0.02 2.875 0.023 2.918 c 0.063 0.07 5.04 -0.043 7.086 -0.16 c 0.707 -0.039 0.855 -0.027 0.891 0.066 c 0.027 0.066 -0.293 0.68 -0.742 1.426 c -0.43 0.719 -1.355 2.266 -2.051 3.43 c -0.695 1.164 -1.25 2.156 -1.23 2.207 c 0.047 0.129 4.594 2.797 4.773 2.801 c 0.141 0.004 1.176 -1.879 3.543 -6.43 c 0.176 -0.34 0.371 -0.617 0.434 -0.617 c 0.066 0 0.762 1.25 1.793 3.215 c 2.129 4.066 2.07 3.953 2.109 3.953 c 0.02 0 0.52 -0.293 1.113 -0.648 c 0.59 -0.352 1.68 -1 2.418 -1.441 c 0.738 -0.438 1.344 -0.828 1.344 -0.867 c 0 -0.039 -0.703 -1.246 -1.566 -2.684 c -0.863 -1.438 -1.797 -2.996 -2.074 -3.465 c -0.289 -0.48 -0.484 -0.883 -0.449 -0.922 c 0.039 -0.039 1.781 -0.016 3.988 0.047 c 2.156 0.066 3.953 0.094 3.988 0.059 c 0.086 -0.082 0.133 -5.719 0.051 -5.773 c -0.035 -0.023 -1.68 0.012 -3.648 0.074 c -4.281 0.141 -4.375 0.141 -4.375 0.039 c 0 -0.047 0.688 -1.223 1.527 -2.617 c 2.504 -4.164 2.629 -4.379 2.594 -4.434 c -0.016 -0.031 -0.449 -0.301 -0.961 -0.602 c -0.512 -0.297 -1.582 -0.934 -2.379 -1.406 c -0.801 -0.473 -1.488 -0.859 -1.527 -0.859 c -0.063 0 -1.59 2.82 -3.234 5.984 c -0.391 0.75 -0.633 1.137 -0.707 1.125 c -0.059 -0.012 -0.945 -1.613 -1.965 -3.563 c -1.059 -2.02 -1.902 -3.547 -1.961 -3.547 m 0 0" fill="#f9f9f9" stroke="#f9f9f9" stroke-width="0.5"/></g></g></g></g><g><g transform="translate(0,-1004.3622)"><path d="m 1 1043.36 0 4 c 0 2.216 1.784 4 4 4 l 38 0 c 2.216 0 4 -1.784 4 -4 l 0 -4 c 0 2.216 -1.784 4 -4 4 l -38 0 c -2.216 0 -4 -1.784 -4 -4 z" opacity="0.1"/></g></g></svg>
